X:433
T:The Knifes Edge
M:2/2
L:1/8
Q:1/8=150
K:D
D3 E F2 E2|D2 E2 F2 DF|A2 F2 D2 F2|EDEF E2 E2|
D3 E F2 E2|D2 E2 F2 DF|A2 F2 D2 F2|E4 D4:||
A2 Bc d2 cB|A2 B2 B2 A2|A2 Bc d2 cB|A2 G2 F3 G|
A2 A2 B3 A|G2 F2 E2 FG|A2 F2 D2 F2|E4 D4:||
